svgs/solid/calendar-heart.svg

<svg xmlns="http://www.w3.org/2000/svg" viewBox="0 0 448 512"><!--! Font Awesome Pro 6.2.0 by @fontawesome - https://fontawesome.com License - https://fontawesome.com/license (Commercial License) Copyright 2022 Fonticons, Inc. --><path d="M128 0c17.7 0 32 14.3 32 32V64H288V32c0-17.7 14.3-32 32-32s32 14.3 32 32V64h48c26.5 0 48 21.5 48 48v48H0V112C0 85.5 21.5 64 48 64H96V32c0-17.7 14.3-32 32-32zM0 192H448V464c0 26.5-21.5 48-48 48H48c-26.5 0-48-21.5-48-48V192zM212.7 444.7c6.2 6.2 16.4 6.2 22.6 0L328 352c22.1-22.1 22.1-57.9 0-80s-57.9-22.1-80 0l-24 24-24-24c-22.1-22.1-57.9-22.1-80 0s-22.1 57.9 0 80l92.7 92.7z"/></svg>

<svg xmlns="http://www.w3.org/2000/svg" viewBox="0 0 448 512"><!--! Font Awesome Pro 6.1.2 by @fontawesome - https://fontawesome.com License - https://fontawesome.com/license (Commercial License) Copyright 2022 Fonticons, Inc. --><path d="M160 32V64H288V32C288 14.33 302.3 0 320 0C337.7 0 352 14.33 352 32V64H400C426.5 64 448 85.49 448 112V160H0V112C0 85.49 21.49 64 48 64H96V32C96 14.33 110.3 0 128 0C145.7 0 160 14.33 160 32zM0 192H448V464C448 490.5 426.5 512 400 512H48C21.49 512 0 490.5 0 464V192zM235.3 444.7L328 352C350.1 329.9 350.1 294.1 328 272C305.9 249.9 270.1 249.9 248 272L224 296L200 272C177.9 249.9 142.1 249.9 120 272C97.91 294.1 97.91 329.9 120 352L212.7 444.7C218.9 450.9 229.1 450.9 235.3 444.7H235.3z"/></svg>
